!!!OTL: MORGEN MUSS ICH FORT VON HIER
!!!ARE: Europa, Mitteleuropa, Deutschland
!!!SCT: F0162
!!!YEM: Copyright 1995, estate of Helmut Schaffrath.
**kern
*ICvox
*Ivox
*M4/4
*k[f#]
*G:
=1
{4.b
8b
4cc
4b
=2
4a
4g
4g
4a}
=3
{4b
4b
4ee
4dd
=4
2.dd
4cc
=5
2.b
4r}
=6
{4.b
8b
4cc
4b
=7
4a
4g
4g
4a}
=8
{4b
4b
4ee
4dd
=9
2.dd
4cc
=10
2.b
4r}
=11
{4.a
8a
4b
4b
=12
4cc
4b
4cc
4r}
=13
{4.b
8b
4cc
4cc
=14
2dd
4.ee
8r}
=15
{4.dd
8cc
4b
8dd
8cc
=16
2b
2a
=17
2.g
4r}
==
!!!AGN: Abschieds - Lied
!!!ONB: ESAC (Essen Associative Code) Database: FINK
!!!AMT: simple quadruple
!!!AIN: vox
!!!EED: Helmut Schaffrath
!!!EEV: 1.0
*-
